source/work/images/artifact_flowdiagram.svg

<svg xmlns="http://www.w3.org/2000/svg" width="64" height="64" viewBox="0 0 64 64"><style type="text/css">.frame{fill:#FFFFFF;} .content{opacity:0.5;fill:#FFFFFF;}</style><path class="frame" d="M60 4c1.103 0 2 .897 2 2v51.9c0 1.103-.897 2-2 2h-56c-1.103 0-2-.897-2-2v-51.9c0-1.103.897-2 2-2h56m0-1h-56c-1.657 0-3 1.343-3 3v51.9c0 1.657 1.343 3 3 3h56c1.657 0 3-1.343 3-3v-51.9c0-1.657-1.343-3-3-3z"/><path class="content" d="M9 21h1.5v2.793l-.793-.793c-.195-.195-.512-.195-.707 0-.195.195-.195.512 0 .707l1.646 1.646c.195.195.512.195.707 0l1.647-1.646c.195-.195.195-.512 0-.707-.195-.195-.512-.195-.707 0l-.793.793v-2.793h1.5c1.105 0 2-.895 2-2v-8c0-1.105-.895-2-2-2h-4c-1.105 0-2 .895-2 2v8c0 1.105.895 2 2 2zm-1-2v-8l.004-.021 2.413 4.021-2.413 4.021-.004-.021zm1 1c-.132 0-.256-.029-.372-.075l2.372-3.953 2.372 3.953c-.116.046-.24.075-.372.075h-4zm4.996-9.021l.004.021v8l-.004.021-2.413-4.021 2.413-4.021zm-.996-.979c.132 0 .256.029.372.075l-2.372 3.953-2.372-3.953c.116-.046.24-.075.372-.075h4zm10 11h1.5v2.793l-.793-.793c-.195-.195-.512-.195-.707 0-.195.195-.195.512 0 .707l1.646 1.646c.195.195.512.195.707 0l1.647-1.646c.195-.195.195-.512 0-.707-.195-.195-.512-.195-.707 0l-.793.793v-2.793h1.5c1.105 0 2-.895 2-2v-8c0-1.105-.895-2-2-2h-4c-1.105 0-2 .895-2 2v8c0 1.105.895 2 2 2zm-1-2v-8l.004-.021 2.413 4.021-2.413 4.021-.004-.021zm1 1c-.132 0-.256-.029-.372-.075l2.372-3.953 2.372 3.953c-.116.046-.24.075-.372.075h-4zm4.996-9.021l.004.021v8l-.004.021-2.413-4.021 2.413-4.021zm-.996-.979c.132 0 .256.029.372.075l-2.372 3.953-2.372-3.953c.116-.046.24-.075.372-.075h4zm28-1h-4c-1.105 0-2 .895-2 2v8c0 1.105.895 2 2 2h1.5v2.793l-.793-.793c-.195-.195-.512-.195-.707 0-.195.195-.195.512 0 .707l1.646 1.646c.195.195.512.195.707 0l1.647-1.646c.195-.195.195-.512 0-.707-.195-.195-.512-.195-.707 0l-.793.793v-2.793h1.5c1.105 0 2-.895 2-2v-8c0-1.105-.895-2-2-2zm1 2v8l-.004.021-2.413-4.021 2.413-4.021.004.021zm-1-1c.132 0 .256.029.372.075l-2.372 3.953-2.372-3.953c.116-.046.24-.075.372-.075h4zm-4.996 9.021l-.004-.021v-8l.004-.021 2.413 4.021-2.413 4.021zm.996.979c-.132 0-.256-.029-.372-.075l2.372-3.953 2.372 3.953c-.116.046-.24.075-.372.075h-4zm4 6h-4c-1.105 0-2 .895-2 2v8c0 1.105.895 2 2 2h4c1.105 0 2-.895 2-2v-8c0-1.105-.895-2-2-2zm1 2v8l-.004.021-2.413-4.021 2.413-4.021.004.021zm-1-1c.132 0 .256.029.372.075l-2.372 3.953-2.372-3.953c.116-.046.24-.075.372-.075h4zm-4.996 9.021l-.004-.021v-8l.004-.021 2.413 4.021-2.413 4.021zm.996.979c-.132 0-.256-.029-.372-.075l2.372-3.953 2.372 3.953c-.116.046-.24.075-.372.075h-4zm-38 6h-4c-1.105 0-2 .895-2 2v8c0 1.105.895 2 2 2h4c1.105 0 2-.895 2-2v-8c0-1.105-.895-2-2-2zm1 2v8l-.004.021-2.413-4.021 2.413-4.021.004.021zm-1-1c.132 0 .256.029.372.075l-2.372 3.953-2.372-3.953c.116-.046.24-.075.372-.075h4zm-4.996 9.021l-.004-.021v-8l.004-.021 2.413 4.021-2.413 4.021zm.996.979c-.132 0-.256-.029-.372-.075l2.372-3.953 2.372 3.953c-.116.046-.24.075-.372.075h-4zm18-11h-4c-1.105 0-2 .895-2 2v3.5h-2.793l.793-.793c.195-.195.195-.512 0-.707-.195-.195-.512-.195-.707 0l-1.646 1.646c-.195.195-.195.512 0 .707l1.646 1.647c.195.195.512.195.707 0 .195-.195.195-.512 0-.707l-.793-.793h2.793v3.5c0 1.105.895 2 2 2h4c1.105 0 2-.895 2-2v-8c0-1.105-.895-2-2-2zm1 2v8l-.004.021-2.413-4.021 2.413-4.021.004.021zm-1-1c.132 0 .256.029.372.075l-2.372 3.953-2.372-3.953c.116-.046.24-.075.372-.075h4zm-4.996 9.021l-.004-.021v-8l.004-.021 2.413 4.021-2.413 4.021zm.996.979c-.132 0-.256-.029-.372-.075l2.372-3.953 2.372 3.953c-.116.046-.24.075-.372.075h-4zm32-11h-4c-1.105 0-2 .895-2 2v8c0 1.105.895 2 2 2h4c1.105 0 2-.895 2-2v-8c0-1.105-.895-2-2-2zm1 2v8l-.004.021-2.413-4.021 2.413-4.021.004.021zm-1-1c.132 0 .256.029.372.075l-2.372 3.953-2.372-3.953c.116-.046.24-.075.372-.075h4zm-4.996 9.021l-.004-.021v-8l.004-.021 2.413 4.021-2.413 4.021zm.996.979c-.132 0-.256-.029-.372-.075l2.372-3.953 2.372 3.953c-.116.046-.24.075-.372.075h-4zm-34-20c.195.195.512.195.707 0l1.646-1.646c.195-.195.195-.512 0-.707l-1.646-1.647c-.195-.195-.512-.195-.707 0-.195.195-.195.512 0 .707l.793.793h-2.793v-3.5c0-1.105-.895-2-2-2h-4c-1.105 0-2 .895-2 2v8c0 1.105.895 2 2 2h4c1.105 0 2-.895 2-2v-3.5h2.793l-.793.793c-.195.195-.195.512 0 .707zm-3-6v8l-.004.021-2.413-4.021 2.413-4.021.004.021zm-1-1c.132 0 .256.029.372.075l-2.372 3.953-2.372-3.953c.116-.046.24-.075.372-.075h4zm-4.996 9.021l-.004-.021v-8l.004-.021 2.413 4.021-2.413 4.021zm.996.979c-.132 0-.256-.029-.372-.075l2.372-3.953 2.372 3.953c-.116.046-.24.075-.372.075h-4zm36-23.293l.793.793h-2.793v-3.5c0-1.105-.895-2-2-2h-4c-1.105 0-2 .895-2 2v8c0 1.105.895 2 2 2h4c1.105 0 2-.895 2-2v-3.5h2.793l-.793.793c-.195.195-.195.512 0 .707.195.195.512.195.707 0l1.646-1.646c.195-.195.195-.512 0-.707l-1.646-1.647c-.195-.195-.512-.195-.707 0-.195.195-.195.512 0 .707zm-3-2.707v8l-.004.021-2.413-4.021 2.413-4.021.004.021zm-1-1c.132 0 .256.029.372.075l-2.372 3.953-2.372-3.953c.116-.046.24-.075.372-.075h4zm-4.996 9.021l-.004-.021v-8l.004-.021 2.413 4.021-2.413 4.021zm.996.979c-.132 0-.256-.029-.372-.075l2.372-3.953 2.372 3.953c-.116.046-.24.075-.372.075h-4zm8 27.707l.793.793h-2.793v-3.5c0-1.105-.895-2-2-2h-4c-1.105 0-2 .895-2 2v3.5h-2.793l.793-.793c.195-.195.195-.512 0-.707-.195-.195-.512-.195-.707 0l-1.646 1.646c-.195.195-.195.512 0 .707l1.646 1.647c.195.195.512.195.707 0 .195-.195.195-.512 0-.707l-.793-.793h2.793v3.5c0 1.105.895 2 2 2h4c1.105 0 2-.895 2-2v-3.5h2.793l-.793.793c-.195.195-.195.512 0 .707.195.195.512.195.707 0l1.646-1.646c.195-.195.195-.512 0-.707l-1.646-1.647c-.195-.195-.512-.195-.707 0-.195.195-.195.512 0 .707zm-3-2.707v8l-.004.021-2.413-4.021 2.413-4.021.004.021zm-1-1c.132 0 .256.029.372.075l-2.372 3.953-2.372-3.953c.116-.046.24-.075.372-.075h4zm-4.996 9.021l-.004-.021v-8l.004-.021 2.413 4.021-2.413 4.021zm.996.979c-.132 0-.256-.029-.372-.075l2.372-3.953 2.372 3.953c-.116.046-.24.075-.372.075h-4zm1.5-13.207l-.793-.793c-.195-.195-.512-.195-.707 0-.195.195-.195.512 0 .707l1.646 1.646c.195.195.512.195.707 0l1.647-1.646c.195-.195.195-.512 0-.707-.195-.195-.512-.195-.707 0l-.793.793v-17.586l.793.793c.195.195.512.195.707 0 .195-.195.195-.512 0-.707l-1.646-1.646c-.195-.195-.512-.195-.707 0l-1.647 1.646c-.195.195-.195.512 0 .707.195.195.512.195.707 0l.793-.793v8.293h-9.5v-3.5c0-1.105-.895-2-2-2h-4c-1.105 0-2 .895-2 2v8c0 1.105.895 2 2 2h4c1.105 0 2-.895 2-2v-3.5h9.5v8.293zm-10.5-12.793v8l-.004.021-2.413-4.021 2.413-4.021.004.021zm-1-1c.132 0 .256.029.372.075l-2.372 3.953-2.372-3.953c.116-.046.24-.075.372-.075h4zm-4.996 9.021l-.004-.021v-8l.004-.021 2.413 4.021-2.413 4.021zm.996.979c-.132 0-.256-.029-.372-.075l2.372-3.953 2.372 3.953c-.116.046-.24.075-.372.075h-4z"/></svg>

<?xml version="1.0" encoding="utf-8"?>
<!-- Generator: Adobe Illustrator 19.2.1, SVG Export Plug-In . SVG Version: 6.00 Build 0)  -->
<svg version="1.1" id="icons" xmlns="http://www.w3.org/2000/svg" xmlns:xlink="http://www.w3.org/1999/xlink" x="0px" y="0px"
	 width="64px" height="64px" viewBox="0 0 64 64" style="enable-background:new 0 0 64 64;" xml:space="preserve">
<style type="text/css">
	.frame{fill:#FFFFFF;}
	.content{opacity:0.5;fill:#FFFFFF;}
</style>
<path class="frame" d="M60,4c1.103,0,2,0.897,2,2v51.9c0,1.103-0.897,2-2,2H4c-1.103,0-2-0.897-2-2V6c0-1.103,0.897-2,2-2H60 M60,3
	H4C2.343,3,1,4.343,1,6v51.9c0,1.657,1.343,3,3,3h56c1.657,0,3-1.343,3-3V6C63,4.343,61.657,3,60,3L60,3z"/>
<path class="content" d="M9,21h1.5v2.793L9.707,23C9.512,22.805,9.195,22.805,9,23l0,0c-0.195,0.195-0.195,0.512,0,0.707
	l1.646,1.646c0.195,0.195,0.512,0.195,0.707,0L13,23.707c0.195-0.195,0.195-0.512,0-0.707l0,0c-0.195-0.195-0.512-0.195-0.707,0
	L11.5,23.793V21H13c1.105,0,2-0.895,2-2v-8c0-1.105-0.895-2-2-2H9c-1.105,0-2,0.895-2,2v8C7,20.105,7.895,21,9,21z M8,19v-8
	c0-0.007,0.004-0.014,0.004-0.021L10.417,15l-2.413,4.021C8.004,19.014,8,19.007,8,19z M9,20c-0.132,0-0.256-0.029-0.372-0.075
	L11,15.972l2.372,3.953C13.256,19.971,13.132,20,13,20H9z M13.996,10.979C13.996,10.986,14,10.993,14,11v8
	c0,0.007-0.004,0.014-0.004,0.021L11.583,15L13.996,10.979z M13,10c0.132,0,0.256,0.029,0.372,0.075L11,14.028l-2.372-3.953
	C8.744,10.029,8.868,10,9,10H13z M23,21h1.5v2.793L23.707,23c-0.195-0.195-0.512-0.195-0.707,0l0,0
	c-0.195,0.195-0.195,0.512,0,0.707l1.646,1.646c0.195,0.195,0.512,0.195,0.707,0L27,23.707c0.195-0.195,0.195-0.512,0-0.707l0,0
	c-0.195-0.195-0.512-0.195-0.707,0L25.5,23.793V21H27c1.105,0,2-0.895,2-2v-8c0-1.105-0.895-2-2-2h-4c-1.105,0-2,0.895-2,2v8
	C21,20.105,21.895,21,23,21z M22,19v-8c0-0.007,0.004-0.014,0.004-0.021L24.417,15l-2.413,4.021C22.004,19.014,22,19.007,22,19z
	 M23,20c-0.132,0-0.256-0.029-0.372-0.075L25,15.972l2.372,3.953C27.256,19.971,27.132,20,27,20H23z M27.996,10.979
	C27.996,10.986,28,10.993,28,11v8c0,0.007-0.004,0.014-0.004,0.021L25.583,15L27.996,10.979z M27,10
	c0.132,0,0.256,0.029,0.372,0.075L25,14.028l-2.372-3.953C22.744,10.029,22.868,10,23,10H27z M55,9h-4c-1.105,0-2,0.895-2,2v8
	c0,1.105,0.895,2,2,2h1.5v2.793L51.707,23c-0.195-0.195-0.512-0.195-0.707,0l0,0c-0.195,0.195-0.195,0.512,0,0.707l1.646,1.646
	c0.195,0.195,0.512,0.195,0.707,0L55,23.707c0.195-0.195,0.195-0.512,0-0.707l0,0c-0.195-0.195-0.512-0.195-0.707,0L53.5,23.793V21
	H55c1.105,0,2-0.895,2-2v-8C57,9.895,56.105,9,55,9z M56,11v8c0,0.007-0.004,0.014-0.004,0.021L53.583,15l2.413-4.021
	C55.996,10.986,56,10.993,56,11z M55,10c0.132,0,0.256,0.029,0.372,0.075L53,14.028l-2.372-3.953C50.744,10.029,50.868,10,51,10H55z
	 M50.004,19.021C50.004,19.014,50,19.007,50,19v-8c0-0.007,0.004-0.014,0.004-0.021L52.417,15L50.004,19.021z M51,20
	c-0.132,0-0.256-0.029-0.372-0.075L53,15.972l2.372,3.953C55.256,19.971,55.132,20,55,20H51z M55,26h-4c-1.105,0-2,0.895-2,2v8
	c0,1.105,0.895,2,2,2h4c1.105,0,2-0.895,2-2v-8C57,26.895,56.105,26,55,26z M56,28v8c0,0.007-0.004,0.014-0.004,0.021L53.583,32
	l2.413-4.021C55.996,27.986,56,27.993,56,28z M55,27c0.132,0,0.256,0.029,0.372,0.075L53,31.028l-2.372-3.953
	C50.744,27.029,50.868,27,51,27H55z M50.004,36.021C50.004,36.014,50,36.007,50,36v-8c0-0.007,0.004-0.014,0.004-0.021L52.417,32
	L50.004,36.021z M51,37c-0.132,0-0.256-0.029-0.372-0.075L53,32.972l2.372,3.953C55.256,36.971,55.132,37,55,37H51z M13,43H9
	c-1.105,0-2,0.895-2,2v8c0,1.105,0.895,2,2,2h4c1.105,0,2-0.895,2-2v-8C15,43.895,14.105,43,13,43z M14,45v8
	c0,0.007-0.004,0.014-0.004,0.021L11.583,49l2.413-4.021C13.996,44.986,14,44.993,14,45z M13,44c0.132,0,0.256,0.029,0.372,0.075
	L11,48.028l-2.372-3.953C8.744,44.029,8.868,44,9,44H13z M8.004,53.021C8.004,53.014,8,53.007,8,53v-8
	c0-0.007,0.004-0.014,0.004-0.021L10.417,49L8.004,53.021z M9,54c-0.132,0-0.256-0.029-0.372-0.075L11,49.972l2.372,3.953
	C13.256,53.971,13.132,54,13,54H9z M27,43h-4c-1.105,0-2,0.895-2,2v3.5h-2.793L19,47.707c0.195-0.195,0.195-0.512,0-0.707l0,0
	c-0.195-0.195-0.512-0.195-0.707,0l-1.646,1.646c-0.195,0.195-0.195,0.512,0,0.707L18.293,51c0.195,0.195,0.512,0.195,0.707,0l0,0
	c0.195-0.195,0.195-0.512,0-0.707L18.207,49.5H21V53c0,1.105,0.895,2,2,2h4c1.105,0,2-0.895,2-2v-8C29,43.895,28.105,43,27,43z
	 M28,45v8c0,0.007-0.004,0.014-0.004,0.021L25.583,49l2.413-4.021C27.996,44.986,28,44.993,28,45z M27,44
	c0.132,0,0.256,0.029,0.372,0.075L25,48.028l-2.372-3.953C22.744,44.029,22.868,44,23,44H27z M22.004,53.021
	C22.004,53.014,22,53.007,22,53v-8c0-0.007,0.004-0.014,0.004-0.021L24.417,49L22.004,53.021z M23,54
	c-0.132,0-0.256-0.029-0.372-0.075L25,49.972l2.372,3.953C27.256,53.971,27.132,54,27,54H23z M55,43h-4c-1.105,0-2,0.895-2,2v8
	c0,1.105,0.895,2,2,2h4c1.105,0,2-0.895,2-2v-8C57,43.895,56.105,43,55,43z M56,45v8c0,0.007-0.004,0.014-0.004,0.021L53.583,49
	l2.413-4.021C55.996,44.986,56,44.993,56,45z M55,44c0.132,0,0.256,0.029,0.372,0.075L53,48.028l-2.372-3.953
	C50.744,44.029,50.868,44,51,44H55z M50.004,53.021C50.004,53.014,50,53.007,50,53v-8c0-0.007,0.004-0.014,0.004-0.021L52.417,49
	L50.004,53.021z M51,54c-0.132,0-0.256-0.029-0.372-0.075L53,49.972l2.372,3.953C55.256,53.971,55.132,54,55,54H51z M17,34L17,34
	c0.195,0.195,0.512,0.195,0.707,0l1.646-1.646c0.195-0.195,0.195-0.512,0-0.707L17.707,30c-0.195-0.195-0.512-0.195-0.707,0l0,0
	c-0.195,0.195-0.195,0.512,0,0.707l0.793,0.793H15V28c0-1.105-0.895-2-2-2H9c-1.105,0-2,0.895-2,2v8c0,1.105,0.895,2,2,2h4
	c1.105,0,2-0.895,2-2v-3.5h2.793L17,33.293C16.805,33.488,16.805,33.805,17,34z M14,28v8c0,0.007-0.004,0.014-0.004,0.021L11.583,32
	l2.413-4.021C13.996,27.986,14,27.993,14,28z M13,27c0.132,0,0.256,0.029,0.372,0.075L11,31.028l-2.372-3.953
	C8.744,27.029,8.868,27,9,27H13z M8.004,36.021C8.004,36.014,8,36.007,8,36v-8c0-0.007,0.004-0.014,0.004-0.021L10.417,32
	L8.004,36.021z M9,37c-0.132,0-0.256-0.029-0.372-0.075L11,32.972l2.372,3.953C13.256,36.971,13.132,37,13,37H9z M45,13.707
	l0.793,0.793H43V11c0-1.105-0.895-2-2-2h-4c-1.105,0-2,0.895-2,2v8c0,1.105,0.895,2,2,2h4c1.105,0,2-0.895,2-2v-3.5h2.793L45,16.293
	c-0.195,0.195-0.195,0.512,0,0.707l0,0c0.195,0.195,0.512,0.195,0.707,0l1.646-1.646c0.195-0.195,0.195-0.512,0-0.707L45.707,13
	c-0.195-0.195-0.512-0.195-0.707,0l0,0C44.805,13.195,44.805,13.512,45,13.707z M42,11v8c0,0.007-0.004,0.014-0.004,0.021L39.583,15
	l2.413-4.021C41.996,10.986,42,10.993,42,11z M41,10c0.132,0,0.256,0.029,0.372,0.075L39,14.028l-2.372-3.953
	C36.744,10.029,36.868,10,37,10H41z M36.004,19.021C36.004,19.014,36,19.007,36,19v-8c0-0.007,0.004-0.014,0.004-0.021L38.417,15
	L36.004,19.021z M37,20c-0.132,0-0.256-0.029-0.372-0.075L39,15.972l2.372,3.953C41.256,19.971,41.132,20,41,20H37z M45,47.707
	l0.793,0.793H43V45c0-1.105-0.895-2-2-2h-4c-1.105,0-2,0.895-2,2v3.5h-2.793L33,47.707c0.195-0.195,0.195-0.512,0-0.707l0,0
	c-0.195-0.195-0.512-0.195-0.707,0l-1.646,1.646c-0.195,0.195-0.195,0.512,0,0.707L32.293,51c0.195,0.195,0.512,0.195,0.707,0l0,0
	c0.195-0.195,0.195-0.512,0-0.707L32.207,49.5H35V53c0,1.105,0.895,2,2,2h4c1.105,0,2-0.895,2-2v-3.5h2.793L45,50.293
	c-0.195,0.195-0.195,0.512,0,0.707l0,0c0.195,0.195,0.512,0.195,0.707,0l1.646-1.646c0.195-0.195,0.195-0.512,0-0.707L45.707,47
	c-0.195-0.195-0.512-0.195-0.707,0l0,0C44.805,47.195,44.805,47.512,45,47.707z M42,45v8c0,0.007-0.004,0.014-0.004,0.021L39.583,49
	l2.413-4.021C41.996,44.986,42,44.993,42,45z M41,44c0.132,0,0.256,0.029,0.372,0.075L39,48.028l-2.372-3.953
	C36.744,44.029,36.868,44,37,44H41z M36.004,53.021C36.004,53.014,36,53.007,36,53v-8c0-0.007,0.004-0.014,0.004-0.021L38.417,49
	L36.004,53.021z M37,54c-0.132,0-0.256-0.029-0.372-0.075L39,49.972l2.372,3.953C41.256,53.971,41.132,54,41,54H37z M38.5,40.793
	L37.707,40c-0.195-0.195-0.512-0.195-0.707,0l0,0c-0.195,0.195-0.195,0.512,0,0.707l1.646,1.646c0.195,0.195,0.512,0.195,0.707,0
	L41,40.707c0.195-0.195,0.195-0.512,0-0.707l0,0c-0.195-0.195-0.512-0.195-0.707,0L39.5,40.793V32.5V32v-8.793L40.293,24
	c0.195,0.195,0.512,0.195,0.707,0l0,0c0.195-0.195,0.195-0.512,0-0.707l-1.646-1.646c-0.195-0.195-0.512-0.195-0.707,0L37,23.293
	c-0.195,0.195-0.195,0.512,0,0.707l0,0c0.195,0.195,0.512,0.195,0.707,0l0.793-0.793V31.5H29V28c0-1.105-0.895-2-2-2h-4
	c-1.105,0-2,0.895-2,2v8c0,1.105,0.895,2,2,2h4c1.105,0,2-0.895,2-2v-3.5h9.5V40.793z M28,28v8c0,0.007-0.004,0.014-0.004,0.021
	L25.583,32l2.413-4.021C27.996,27.986,28,27.993,28,28z M27,27c0.132,0,0.256,0.029,0.372,0.075L25,31.028l-2.372-3.953
	C22.744,27.029,22.868,27,23,27H27z M22.004,36.021C22.004,36.014,22,36.007,22,36v-8c0-0.007,0.004-0.014,0.004-0.021L24.417,32
	L22.004,36.021z M23,37c-0.132,0-0.256-0.029-0.372-0.075L25,32.972l2.372,3.953C27.256,36.971,27.132,37,27,37H23z"/>
</svg>
